X: 43
T: Redwing
M: 4/4
L:1/4
K: G
uD |: "G" vG > G G B | d3 B | "C" c e g e | "G" d3 B |
"D7" c B A c | "G" B A G B |1 "A7" A E F G | "D7" A F E D :|2
"A7" A E "D7" F D | "G" G g g f |: "C" ve2 c2 | e g f e |
"G" d2 B2 | z d/d/ e d | "D7" d2 A2 |1 z d/d/ e d |
 "G" d2 B2 | z ug vg uf :|2 z c B A | "G" G4 | z2 z |]

% From Fiddler's Philharmonic; many alterations by Kate
% Subsequently altered 2016 Feb 14 to match contra dance plans:
%   dotted half notes turned into half note plus quarter note
